X: 29296
T: New Road, The
R: reel
M: 4/4
K: Dmixolydian
DEFD d3B|cAAG E~c3|DE ((3FED) d2ed|cAGE EDCE|
DE ((3FED) d3B|cAAG E~c3|ABcA defd|cAGE ED DA||
defg afge|((3B^cd) ef gece|defg agfa|~g3a fdfg|
afdf afdf|gece ~g2fe|defg ((3agf) bf|ageg fdde||
~f2de fagf|eABA ~g2af|gfde ((3fga) ge|fde^c Adde|
~f2de fagf|eABA ~g2fg|((3agf) ge fd^cA|((3B^cd) AG FDEF:|

